src/icons/react.svg

<svg width="60" height="60" viewBox="0 0 60 60" fill="none" xmlns="http://www.w3.org/2000/svg">
<path d="M30 35.3438C32.9513 35.3438 35.3438 32.9513 35.3438 30C35.3438 27.0487 32.9513 24.6562 30 24.6562C27.0487 24.6562 24.6562 27.0487 24.6562 30C24.6562 32.9513 27.0487 35.3438 30 35.3438Z" fill="#61DAFB"/>
<path d="M50.2969 21.1875C49.2656 20.8125 48.1875 20.4375 47.0625 20.1094C47.3437 18.9844 47.5781 17.8594 47.7656 16.7812C48.75 10.5938 47.6719 6.23437 44.6719 4.54687C43.7812 4.03125 42.7969 3.79688 41.6719 3.79688C38.3906 3.79688 34.2187 6.23438 30 10.3125C25.7812 6.23438 21.6094 3.79688 18.3281 3.79688C17.2031 3.79688 16.2188 4.03125 15.3281 4.54687C12.3281 6.28125 11.25 10.6406 12.2344 16.7812C12.4219 17.8594 12.6562 18.9844 12.9375 20.1094C11.8125 20.4375 10.7344 20.7656 9.70312 21.1875C3.84375 23.4375 0.65625 26.5313 0.65625 30C0.65625 33.4688 3.89063 36.5625 9.70312 38.8125C10.7344 39.1875 11.8125 39.5625 12.9375 39.8906C12.6562 41.0156 12.4219 42.1406 12.2344 43.2188C11.25 49.4063 12.3281 53.7656 15.3281 55.4531C16.2188 55.9688 17.2031 56.2031 18.3281 56.2031C21.6562 56.2031 25.8281 53.7656 30 49.6875C34.2187 53.7656 38.3906 56.2031 41.6719 56.2031C42.7969 56.2031 43.7812 55.9688 44.6719 55.4531C47.6719 53.7188 48.75 49.3594 47.7656 43.2188C47.5781 42.1406 47.3437 41.0156 47.0625 39.8906C48.1875 39.5625 49.2656 39.2344 50.2969 38.8125C56.1562 36.5625 59.3437 33.4688 59.3437 30C59.3437 26.5313 56.1562 23.4375 50.2969 21.1875ZM43.3594 6.89062C45.2812 8.01562 45.9375 11.4844 45.1406 16.4063C45 17.3906 44.7656 18.4219 44.4844 19.5C42.0469 18.9375 39.4687 18.5625 36.75 18.3281C35.1562 16.0781 33.5156 14.0625 31.875 12.2344C35.3437 8.8125 38.8594 6.46875 41.7187 6.46875C42.3281 6.46875 42.8906 6.60938 43.3594 6.89062ZM38.1094 34.6875C37.2656 36.1875 36.2812 37.6875 35.25 39.1875C33.5156 39.3281 31.7812 39.375 30 39.375C28.1719 39.375 26.4375 39.3281 24.75 39.1875C23.7187 37.6875 22.7812 36.1875 21.9375 34.6875C21.0469 33.1406 20.2031 31.5469 19.4531 30C20.2031 28.4531 21.0469 26.8594 21.9375 25.3125C22.7812 23.8125 23.7656 22.3125 24.7969 20.8125C26.5312 20.6719 28.2656 20.625 30.0469 20.625C31.875 20.625 33.6094 20.6719 35.2969 20.8125C36.3281 22.3125 37.2656 23.8125 38.1094 25.3125C39 26.8594 39.8437 28.4531 40.5937 30C39.7969 31.5469 39 33.0938 38.1094 34.6875ZM42 33.1406C42.7031 34.7813 43.2656 36.375 43.7812 37.9688C42.1875 38.3438 40.5 38.625 38.7187 38.8594C39.2812 37.9688 39.8906 37.0313 40.4062 36.0469C40.9687 35.0625 41.4844 34.0781 42 33.1406ZM30 45.8438C28.875 44.625 27.7969 43.3125 26.7656 41.9531C27.8437 42 28.9219 42.0469 30 42.0469C31.0781 42.0469 32.1562 42 33.2344 41.9531C32.2031 43.3125 31.125 44.625 30 45.8438ZM21.2812 38.8125C19.5 38.5781 17.8125 38.2969 16.2187 37.9219C16.7344 36.375 17.2969 34.7344 18 33.0938C18.5156 34.0313 19.0312 35.0156 19.5937 35.9531C20.1562 36.9844 20.7187 37.875 21.2812 38.8125ZM18 26.8594C17.2969 25.2188 16.7344 23.625 16.2187 22.0313C17.8125 21.6563 19.5 21.375 21.2812 21.1406C20.7187 22.0313 20.1094 22.9688 19.5937 23.9531C19.0312 24.9375 18.5156 25.9219 18 26.8594ZM30 14.1563C31.125 15.375 32.2031 16.6875 33.2344 18.0469C32.1562 18 31.0781 17.9531 30 17.9531C28.9219 17.9531 27.8437 18 26.7656 18.0469C27.7969 16.6875 28.875 15.375 30 14.1563ZM40.4062 24L38.7187 21.1875C40.5 21.4219 42.1875 21.7031 43.7812 22.0781C43.2656 23.625 42.7031 25.2656 42 26.9063C41.4844 25.9219 40.9687 24.9375 40.4062 24ZM14.8594 16.4063C14.0625 11.4844 14.7187 8.01562 16.6406 6.89062C17.1094 6.60938 17.6719 6.46875 18.2812 6.46875C21.0937 6.46875 24.6094 8.76563 28.125 12.2344C26.4844 14.0156 24.8437 16.0781 23.25 18.3281C20.5312 18.5625 17.9531 18.9844 15.5156 19.5C15.2344 18.4219 15.0469 17.3906 14.8594 16.4063ZM3.28125 30C3.28125 27.7969 5.95312 25.4531 10.6406 23.7188C11.5781 23.3438 12.6094 23.0156 13.6406 22.7344C14.3906 25.0781 15.3281 27.5625 16.4531 30.0469C15.3281 32.5313 14.3437 34.9688 13.6406 37.3125C7.17188 35.4375 3.28125 32.625 3.28125 30ZM16.6406 53.1094C14.7187 51.9844 14.0625 48.5156 14.8594 43.5938C15 42.6094 15.2344 41.5781 15.5156 40.5C17.9531 41.0625 20.5312 41.4375 23.25 41.6719C24.8437 43.9219 26.4844 45.9375 28.125 47.7656C24.6562 51.1875 21.1406 53.5313 18.2812 53.5313C17.6719 53.5313 17.1094 53.3906 16.6406 53.1094ZM45.1406 43.5938C45.9375 48.5156 45.2812 51.9844 43.3594 53.1094C42.8906 53.3906 42.3281 53.5313 41.7187 53.5313C38.9062 53.5313 35.3906 51.2344 31.875 47.7656C33.5156 45.9844 35.1562 43.9219 36.75 41.6719C39.4687 41.4375 42.0469 41.0156 44.4844 40.5C44.7656 41.5781 44.9531 42.6094 45.1406 43.5938ZM49.3594 36.2813C48.4219 36.6563 47.3906 36.9844 46.3594 37.2656C45.6094 34.9219 44.6719 32.4375 43.5469 29.9531C44.6719 27.4688 45.6562 25.0313 46.3594 22.6875C52.8281 24.5625 56.7187 27.375 56.7187 30C56.7187 32.2031 54 34.5469 49.3594 36.2813Z" fill="#61DAFB"/>
</svg>

<svg xmlns="http://www.w3.org/2000/svg" width="60" height="60" fill="none"><path fill="#61DAFB" d="M30 35.344a5.344 5.344 0 1 0 0-10.688 5.344 5.344 0 0 0 0 10.688Z"/><path fill="#61DAFB" d="M50.297 21.188a52.272 52.272 0 0 0-3.234-1.079c.28-1.125.515-2.25.703-3.328.984-6.187-.094-10.547-3.094-12.234-.89-.516-1.875-.75-3-.75-3.281 0-7.453 2.437-11.672 6.515-4.219-4.078-8.39-6.515-11.672-6.515-1.125 0-2.11.234-3 .75-3 1.734-4.078 6.094-3.094 12.234.188 1.078.422 2.203.704 3.328-1.126.328-2.204.657-3.235 1.078C3.843 23.438.656 26.532.656 30c0 3.469 3.235 6.563 9.047 8.813 1.031.374 2.11.75 3.235 1.078a46.985 46.985 0 0 0-.704 3.328c-.984 6.187.094 10.547 3.094 12.234.89.516 1.875.75 3 .75 3.328 0 7.5-2.437 11.672-6.516 4.219 4.079 8.39 6.516 11.672 6.516 1.125 0 2.11-.234 3-.75 3-1.734 4.078-6.094 3.094-12.234a47.041 47.041 0 0 0-.703-3.328c1.124-.328 2.203-.657 3.234-1.078 5.86-2.25 9.047-5.344 9.047-8.813 0-3.469-3.188-6.563-9.047-8.813ZM43.359 6.89c1.922 1.125 2.578 4.593 1.782 9.515-.141.985-.375 2.016-.657 3.094-2.437-.563-5.015-.938-7.734-1.172a67.642 67.642 0 0 0-4.875-6.094c3.469-3.421 6.984-5.765 9.844-5.765.61 0 1.172.14 1.64.422Zm-5.25 27.797c-.843 1.5-1.828 3-2.859 4.5-1.734.14-3.469.187-5.25.187-1.828 0-3.563-.047-5.25-.188-1.031-1.5-1.969-3-2.813-4.5A75.535 75.535 0 0 1 19.453 30a75.535 75.535 0 0 1 2.485-4.688c.843-1.5 1.828-3 2.859-4.5a64.722 64.722 0 0 1 5.25-.187c1.828 0 3.562.047 5.25.188 1.031 1.5 1.969 3 2.812 4.5A75.533 75.533 0 0 1 40.594 30c-.797 1.547-1.594 3.094-2.485 4.688ZM42 33.14c.703 1.64 1.266 3.234 1.781 4.828-1.593.375-3.281.656-5.062.89.562-.89 1.172-1.828 1.687-2.812.563-.984 1.078-1.969 1.594-2.906ZM30 45.844a52.721 52.721 0 0 1-3.234-3.89c1.078.046 2.156.093 3.234.093 1.078 0 2.156-.047 3.234-.094A52.721 52.721 0 0 1 30 45.843Zm-8.719-7.032c-1.781-.234-3.468-.515-5.062-.89.515-1.547 1.078-3.188 1.781-4.828.516.937 1.031 1.922 1.594 2.86.562 1.03 1.125 1.921 1.687 2.858ZM18 26.86c-.703-1.64-1.266-3.234-1.781-4.828 1.593-.375 3.281-.656 5.062-.89-.562.89-1.172 1.828-1.687 2.812-.563.985-1.078 1.969-1.594 2.906Zm12-12.703a52.699 52.699 0 0 1 3.234 3.89c-1.078-.046-2.156-.093-3.234-.093-1.078 0-2.156.047-3.234.094A52.699 52.699 0 0 1 30 14.157ZM40.406 24l-1.687-2.813c1.781.235 3.468.516 5.062.891-.515 1.547-1.078 3.188-1.781 4.828-.516-.984-1.031-1.968-1.594-2.906ZM14.86 16.406c-.796-4.922-.14-8.39 1.782-9.515.468-.282 1.03-.422 1.64-.422 2.813 0 6.328 2.297 9.844 5.765-1.64 1.782-3.281 3.844-4.875 6.094a63.738 63.738 0 0 0-7.734 1.172c-.282-1.078-.47-2.11-.657-3.094ZM3.281 30c0-2.203 2.672-4.547 7.36-6.281a28.097 28.097 0 0 1 3-.985 68.33 68.33 0 0 0 2.812 7.313c-1.125 2.484-2.11 4.922-2.812 7.265C7.17 35.438 3.28 32.626 3.28 30Zm13.36 23.11c-1.922-1.126-2.578-4.594-1.782-9.516.141-.985.375-2.016.657-3.094 2.437.563 5.015.938 7.734 1.172a67.624 67.624 0 0 0 4.875 6.094c-3.469 3.422-6.984 5.765-9.844 5.765-.61 0-1.172-.14-1.64-.422Zm28.5-9.516c.797 4.922.14 8.39-1.782 9.515-.468.282-1.03.422-1.64.422-2.813 0-6.328-2.297-9.844-5.765 1.64-1.782 3.281-3.844 4.875-6.094a63.741 63.741 0 0 0 7.734-1.172c.282 1.078.47 2.11.657 3.094Zm4.218-7.313c-.937.375-1.968.703-3 .985a68.33 68.33 0 0 0-2.812-7.313c1.125-2.484 2.11-4.922 2.812-7.265 6.47 1.875 10.36 4.687 10.36 7.312 0 2.203-2.719 4.547-7.36 6.281Z"/></svg>
